icons/glyphs/glyph-storage.svg

<?xml version="1.0" encoding="UTF-8" standalone="no"?><svg height="22" viewBox="0 0 5.8208332 5.8208335" width="22" xmlns="http://www.w3.org/2000/svg"><sodipodi:namedview/><metadata><rdf:RDF><cc:Work><dc:format>image/svg+xml</dc:format><dc:type/><dc:title/></cc:Work></rdf:RDF></metadata><path d="m0 0v6.0996094h22v-6.0996094zm3.3476562 1.6738281a1.3759033 1.3759033 0 0 1 1.3769532 1.375 1.3759033 1.3759033 0 0 1 -1.3769532 1.3769531 1.3759033 1.3759033 0 0 1 -1.375-1.3769531 1.3759033 1.3759033 0 0 1 1.375-1.375zm-3.3476562 6.2753907v6.0996092h22v-6.0996092zm3.3476562 1.6738281a1.3759033 1.3759033 0 0 1 1.3769532 1.3750001 1.3759033 1.3759033 0 0 1 -1.3769532 1.376953 1.3759033 1.3759033 0 0 1 -1.375-1.376953 1.3759033 1.3759033 0 0 1 1.375-1.3750001zm-3.3476562 6.2773441v6.099609h22v-6.099609zm3.3476562 1.673828a1.3759033 1.3759033 0 0 1 1.3769532 1.375 1.3759033 1.3759033 0 0 1 -1.3769532 1.376953 1.3759033 1.3759033 0 0 1 -1.375-1.376953 1.3759033 1.3759033 0 0 1 1.375-1.375z" fill="#d0d0d0" stroke-linejoin="round" stroke-width="2" transform="scale(.26458333)"/></svg>

<?xml version="1.0" encoding="UTF-8" standalone="no"?>
<!-- Created with Inkscape (http://www.inkscape.org/) -->

<svg
   xmlns:dc="http://purl.org/dc/elements/1.1/"
   xmlns:cc="http://creativecommons.org/ns#"
   xmlns:rdf="http://www.w3.org/1999/02/22-rdf-syntax-ns#"
   xmlns:svg="http://www.w3.org/2000/svg"
   xmlns="http://www.w3.org/2000/svg"
   xmlns:sodipodi="http://sodipodi.sourceforge.net/DTD/sodipodi-0.dtd"
   xmlns:inkscape="http://www.inkscape.org/namespaces/inkscape"
   width="22"
   height="22"
   viewBox="0 0 5.8208332 5.8208335"
   version="1.1"
   id="svg8"
   inkscape:version="0.92+devel 15698 custom"
   sodipodi:docname="glyph-storage.svg">
  <defs
     id="defs2" />
  <sodipodi:namedview
     id="base"
     pagecolor="#002466"
     bordercolor="#ffffff"
     borderopacity="0.29019608"
     inkscape:pageopacity="1"
     inkscape:pageshadow="2"
     inkscape:zoom="18.681818"
     inkscape:cx="11"
     inkscape:cy="11"
     inkscape:document-units="px"
     inkscape:current-layer="svg8"
     inkscape:document-rotation="0"
     showgrid="false"
     units="px"
     inkscape:showpageshadow="false"
     borderlayer="true"
     inkscape:window-width="1920"
     inkscape:window-height="1054"
     inkscape:window-x="0"
     inkscape:window-y="0"
     inkscape:window-maximized="1"
     inkscape:snap-page="true" />
  <metadata
     id="metadata5">
    <rdf:RDF>
      <cc:Work
         rdf:about="">
        <dc:format>image/svg+xml</dc:format>
        <dc:type
           rdf:resource="http://purl.org/dc/dcmitype/StillImage" />
        <dc:title></dc:title>
      </cc:Work>
    </rdf:RDF>
  </metadata>
  <path
     style="opacity:1;fill:#d0d0d0;stroke-width:1.99999988;stroke-linejoin:round"
     d="M 0 0 L 0 6.0996094 L 22 6.0996094 L 22 0 L 0 0 z M 3.3476562 1.6738281 A 1.3759033 1.3759033 0 0 1 4.7246094 3.0488281 A 1.3759033 1.3759033 0 0 1 3.3476562 4.4257812 A 1.3759033 1.3759033 0 0 1 1.9726562 3.0488281 A 1.3759033 1.3759033 0 0 1 3.3476562 1.6738281 z M 0 7.9492188 L 0 14.048828 L 22 14.048828 L 22 7.9492188 L 0 7.9492188 z M 3.3476562 9.6230469 A 1.3759033 1.3759033 0 0 1 4.7246094 10.998047 A 1.3759033 1.3759033 0 0 1 3.3476562 12.375 A 1.3759033 1.3759033 0 0 1 1.9726562 10.998047 A 1.3759033 1.3759033 0 0 1 3.3476562 9.6230469 z M 0 15.900391 L 0 22 L 22 22 L 22 15.900391 L 0 15.900391 z M 3.3476562 17.574219 A 1.3759033 1.3759033 0 0 1 4.7246094 18.949219 A 1.3759033 1.3759033 0 0 1 3.3476562 20.326172 A 1.3759033 1.3759033 0 0 1 1.9726562 18.949219 A 1.3759033 1.3759033 0 0 1 3.3476562 17.574219 z "
     transform="scale(0.26458333)"
     id="rect4275"
     inkscape:label="glyph" />
</svg>
